retroactive/svg/Nintendo - Nintendo Entertainment System.svg

<?xml version="1.0" encoding="UTF-8" standalone="no"?>
<svg
   xmlns:dc="http://purl.org/dc/elements/1.1/"
   xmlns:cc="http://creativecommons.org/ns#"
   xmlns:rdf="http://www.w3.org/1999/02/22-rdf-syntax-ns#"
   xmlns:svg="http://www.w3.org/2000/svg"
   xmlns="http://www.w3.org/2000/svg"
   viewBox="0 0 320 320"
   height="320"
   width="320"
   xml:space="preserve"
   version="1.1"
   id="svg2"><metadata
     id="metadata8"><rdf:RDF><cc:Work
         rdf:about=""><dc:format>image/svg+xml</dc:format><dc:type
           rdf:resource="http://purl.org/dc/dcmitype/StillImage" /></cc:Work></rdf:RDF></metadata><defs
     id="defs6"><clipPath
       id="clipPath16"
       clipPathUnits="userSpaceOnUse"><path
         id="path18"
         d="M 0,256 256,256 256,0 0,0 0,256 Z" /></clipPath><clipPath
       id="clipPath24"
       clipPathUnits="userSpaceOnUse"><path
         id="path26"
         d="M 4,184 252,184 252,68 4,68 4,184 Z" /></clipPath></defs><g
     transform="matrix(1.25,0,0,-1.25,0,320)"
     id="g10"><g
       id="g12"><g
         clip-path="url(#clipPath16)"
         id="g14"><g
           id="g20"><g
             id="g22" /><g
             id="g28"><g
               style="opacity:0.5"
               id="g30"
               clip-path="url(#clipPath24)"><g
                 id="g32"
                 transform="translate(239.1667,184)"><path
                   id="path34"
                   style="fill:#ffffff;fill-opacity:1;fill-rule:nonzero;stroke:none"
                   d="m 0,0 -222.333,0 c -7.077,0 -12.834,-5.742 -12.834,-12.8 l 0,-90.4 c 0,-7.058 5.757,-12.8 12.834,-12.8 L 0,-116 c 7.076,0 12.833,5.742 12.833,12.8 l 0,90.4 C 12.833,-5.742 7.076,0 0,0" /></g></g></g></g><g
           transform="translate(239.1667,76)"
           id="g36"><path
             id="path38"
             style="fill:#cccccc;fill-opacity:1;fill-rule:nonzero;stroke:none"
             d="m 0,0 -222.333,0 c -2.67,0 -4.834,2.149 -4.834,4.8 l 0,90.4 c 0,2.651 2.164,4.8 4.834,4.8 L 0,100 c 2.669,0 4.833,-2.149 4.833,-4.8 l 0,-90.4 C 4.833,2.149 2.669,0 0,0" /></g><path
           id="path40"
           style="fill:#262626;fill-opacity:1;fill-rule:nonzero;stroke:none"
           d="m 236,84 -216,0 0,80 216,0 0,-80 z" /><g
           transform="translate(64.2399,146)"
           id="g42"><path
             id="path44"
             style="fill:#cccccc;fill-opacity:1;fill-rule:nonzero;stroke:none"
             d="m 0,0 -16.48,0 c -1.04,0 -1.882,-0.843 -1.882,-1.882 l 0,-11.996 -11.996,0 c -1.039,0 -1.882,-0.843 -1.882,-1.882 l 0,-16.48 c 0,-1.04 0.843,-1.882 1.882,-1.882 l 11.996,0 0,-11.996 c 0,-1.039 0.842,-1.882 1.882,-1.882 L 0,-48 c 1.039,0 1.882,0.843 1.882,1.882 l 0,11.996 11.996,0 c 1.039,0 1.882,0.842 1.882,1.882 l 0,16.48 c 0,1.039 -0.843,1.882 -1.882,1.882 l -11.996,0 0,11.996 C 1.882,-0.843 1.039,0 0,0" /></g><g
           transform="translate(78,130.196)"
           id="g46"><path
             id="path48"
             style="fill:#191919;fill-opacity:1;fill-rule:nonzero;stroke:none"
             d="m 0,0 -13.804,0 0,13.804 -16.392,0 0,-13.804 -13.804,0 0,-16.392 13.804,0 0,-13.804 16.392,0 0,13.804 13.804,0 L 0,0 Z" /></g><g
           transform="translate(192,98.4392)"
           id="g50"><path
             id="path52"
             style="fill:#cccccc;fill-opacity:1;fill-rule:nonzero;stroke:none"
             d="m 0,0 c 0,-1.347 -1.092,-2.439 -2.439,-2.439 l -19.122,0 C -22.908,-2.439 -24,-1.347 -24,0 l 0,19.122 c 0,1.347 1.092,2.439 2.439,2.439 l 19.122,0 C -1.092,21.561 0,20.469 0,19.122 L 0,0 Z" /></g><g
           transform="translate(191,108)"
           id="g54"><path
             id="path56"
             style="fill:#7b0000;fill-opacity:1;fill-rule:nonzero;stroke:none"
             d="m 0,0 c 0,6.065 -4.935,11 -11,11 -6.065,0 -11,-4.935 -11,-11 0,-6.065 4.935,-11 11,-11 6.065,0 11,4.935 11,11" /></g><g
           transform="translate(190,108)"
           id="g58"><path
             id="path60"
             style="fill:#b80000;fill-opacity:1;fill-rule:nonzero;stroke:none"
             d="m 0,0 c 0,-5.523 -4.477,-10 -10,-10 -5.523,0 -10,4.477 -10,10 0,5.523 4.477,10 10,10 C -4.477,10 0,5.523 0,0" /></g><g
           transform="translate(224,98.4392)"
           id="g62"><path
             id="path64"
             style="fill:#cccccc;fill-opacity:1;fill-rule:nonzero;stroke:none"
             d="m 0,0 c 0,-1.347 -1.092,-2.439 -2.439,-2.439 l -19.122,0 C -22.908,-2.439 -24,-1.347 -24,0 l 0,19.122 c 0,1.347 1.092,2.439 2.439,2.439 l 19.122,0 C -1.092,21.561 0,20.469 0,19.122 L 0,0 Z" /></g><g
           transform="translate(223,108)"
           id="g66"><path
             id="path68"
             style="fill:#7b0000;fill-opacity:1;fill-rule:nonzero;stroke:none"
             d="m 0,0 c 0,6.065 -4.935,11 -11,11 -6.065,0 -11,-4.935 -11,-11 0,-6.065 4.935,-11 11,-11 6.065,0 11,4.935 11,11" /></g><g
           transform="translate(222,108)"
           id="g70"><path
             id="path72"
             style="fill:#b80000;fill-opacity:1;fill-rule:nonzero;stroke:none"
             d="m 0,0 c 0,-5.523 -4.477,-10 -10,-10 -5.523,0 -10,4.477 -10,10 0,5.523 4.477,10 10,10 C -4.477,10 0,5.523 0,0" /></g><g
           transform="translate(152,96)"
           id="g74"><path
             id="path76"
             style="fill:#cccccc;fill-opacity:1;fill-rule:nonzero;stroke:none"
             d="m 0,0 -56,0 c -2.209,0 -4,1.791 -4,4 l 0,16 c 0,2.209 1.791,4 4,4 l 56,0 c 2.209,0 4,-1.791 4,-4 L 4,4 C 4,1.791 2.209,0 0,0" /></g><g
           transform="translate(120,108)"
           id="g78"><path
             id="path80"
             style="fill:#191919;fill-opacity:1;fill-rule:nonzero;stroke:none"
             d="m 0,0 c 0,-2.209 -1.78,-4 -3.976,-4 l -12.048,0 C -18.22,-4 -20,-2.209 -20,0 c 0,2.209 1.78,4 3.976,4 L -3.976,4 C -1.78,4 0,2.209 0,0" /></g><g
           transform="translate(148,108)"
           id="g82"><path
             id="path84"
             style="fill:#191919;fill-opacity:1;fill-rule:nonzero;stroke:none"
             d="m 0,0 c 0,-2.209 -1.78,-4 -3.976,-4 l -12.048,0 C -18.22,-4 -20,-2.209 -20,0 c 0,2.209 1.78,4 3.976,4 L -3.976,4 C -1.78,4 0,2.209 0,0" /></g><g
           transform="translate(60,122)"
           id="g86"><path
             id="path88"
             style="fill:#262626;fill-opacity:1;fill-rule:nonzero;stroke:none"
             d="m 0,0 c 0,-2.209 -1.791,-4 -4,-4 -2.209,0 -4,1.791 -4,4 0,2.209 1.791,4 4,4 2.209,0 4,-1.791 4,-4" /></g><g
           transform="translate(54.1263,106.7519)"
           id="g90"><path
             id="path92"
             style="fill:#262626;fill-opacity:1;fill-rule:nonzero;stroke:none"
             d="m 0,0 0,3.248 3.949,0 0,-3.248 1.924,0 -4,-4.752 L -2.127,0 0,0 Z" /></g><g
           transform="translate(57.8731,137.2481)"
           id="g94"><path
             id="path96"
             style="fill:#262626;fill-opacity:1;fill-rule:nonzero;stroke:none"
             d="m 0,0 0,-3.248 -3.949,0 0,3.248 -1.924,0 4,4.752 L 2.127,0 0,0 Z" /></g><g
           transform="translate(40.7519,123.8737)"
           id="g98"><path
             id="path100"
             style="fill:#262626;fill-opacity:1;fill-rule:nonzero;stroke:none"
             d="m 0,0 3.248,0 0,-3.949 -3.248,0 0,-1.924 -4.752,4 L 0,2.127 0,0 Z" /></g><g
           transform="translate(71.248,120.1269)"
           id="g102"><path
             id="path104"
             style="fill:#262626;fill-opacity:1;fill-rule:nonzero;stroke:none"
             d="m 0,0 -3.248,0 0,3.949 3.248,0 0,1.924 4.752,-4 L 0,-2.127 0,0 Z" /></g><g
           transform="translate(156,126.8457)"
           id="g106"><path
             id="path108"
             style="fill:#808080;fill-opacity:1;fill-rule:nonzero;stroke:none"
             d="m 0,0 c 0,-1.572 -1.174,-2.846 -2.623,-2.846 l -58.754,0 C -62.826,-2.846 -64,-1.572 -64,0 l 0,6.309 c 0,1.571 1.174,2.845 2.623,2.845 l 58.754,0 C -1.174,9.154 0,7.88 0,6.309 L 0,0 Z" /></g><g
           transform="translate(156,142.8457)"
           id="g110"><path
             id="path112"
             style="fill:#808080;fill-opacity:1;fill-rule:nonzero;stroke:none"
             d="m 0,0 c 0,-1.572 -1.174,-2.846 -2.623,-2.846 l -58.754,0 C -62.826,-2.846 -64,-1.572 -64,0 l 0,6.309 c 0,1.571 1.174,2.845 2.623,2.845 l 58.754,0 C -1.174,9.154 0,7.88 0,6.309 L 0,0 Z" /></g><g
           transform="translate(92,164)"
           id="g114"><path
             id="path116"
             style="fill:#808080;fill-opacity:1;fill-rule:nonzero;stroke:none"
             d="M 0,0 0,-5.154 C 0,-6.726 1.174,-8 2.623,-8 l 58.754,0 C 62.826,-8 64,-6.726 64,-5.154 L 64,0 0,0 Z" /></g><g
           transform="translate(153.3768,92)"
           id="g118"><path
             id="path120"
             style="fill:#808080;fill-opacity:1;fill-rule:nonzero;stroke:none"
             d="m 0,0 -58.754,0 c -1.448,0 -2.623,-1.274 -2.623,-2.846 l 0,-5.154 64,0 0,5.154 C 2.623,-1.274 1.449,0 0,0" /></g><path
           id="path122"
           style="fill:#b3b3b3;fill-opacity:1;fill-rule:nonzero;stroke:none"
           d="m 92,172 -12,0 0,4 12,0 0,-4 z" /></g></g></g></svg>

<?xml version="1.0" encoding="UTF-8" standalone="no"?>
<svg
   xmlns:dc="http://purl.org/dc/elements/1.1/"
   xmlns:cc="http://creativecommons.org/ns#"
   xmlns:rdf="http://www.w3.org/1999/02/22-rdf-syntax-ns#"
   xmlns:svg="http://www.w3.org/2000/svg"
   xmlns="http://www.w3.org/2000/svg"
   viewBox="0 0 330.66626 154.66665"
   height="154.66666"
   width="330.66626"
   xml:space="preserve"
   id="svg2"
   version="1.1"><metadata
     id="metadata8"><rdf:RDF><cc:Work
         rdf:about=""><dc:format>image/svg+xml</dc:format><dc:type
           rdf:resource="http://purl.org/dc/dcmitype/StillImage" /></cc:Work></rdf:RDF></metadata><defs
     id="defs6"><clipPath
       id="clipPath18"
       clipPathUnits="userSpaceOnUse"><path
         id="path16"
         d="M 0,256 H 256 V 0 H 0 Z" /></clipPath><clipPath
       id="clipPath26"
       clipPathUnits="userSpaceOnUse"><path
         id="path24"
         d="M 4,184 H 252 V 68 H 4 Z" /></clipPath></defs><g
     transform="matrix(1.3333333,0,0,-1.3333333,-5.3333332,245.33333)"
     id="g10"><g
       id="g12"><g
         clip-path="url(#clipPath18)"
         id="g14"><g
           id="g20"><g
             id="g22" /><g
             id="g34"><g
               style="opacity:0.5"
               id="g32"
               clip-path="url(#clipPath26)"><g
                 id="g30"
                 transform="translate(239.1667,184)"><path
                   id="path28"
                   style="fill:#ffffff;fill-opacity:1;fill-rule:nonzero;stroke:none"
                   d="m 0,0 h -222.333 c -7.077,0 -12.834,-5.742 -12.834,-12.8 v -90.4 c 0,-7.058 5.757,-12.8 12.834,-12.8 H 0 c 7.076,0 12.833,5.742 12.833,12.8 v 90.4 C 12.833,-5.742 7.076,0 0,0" /></g></g></g></g><g
           transform="translate(239.1667,76)"
           id="g36"><path
             id="path38"
             style="fill:#cccccc;fill-opacity:1;fill-rule:nonzero;stroke:none"
             d="m 0,0 h -222.333 c -2.67,0 -4.834,2.149 -4.834,4.8 v 90.4 c 0,2.651 2.164,4.8 4.834,4.8 H 0 c 2.669,0 4.833,-2.149 4.833,-4.8 V 4.8 C 4.833,2.149 2.669,0 0,0" /></g><path
           id="path40"
           style="fill:#262626;fill-opacity:1;fill-rule:nonzero;stroke:none"
           d="M 236,84 H 20 v 80 h 216 z" /><g
           transform="translate(64.2399,146)"
           id="g42"><path
             id="path44"
             style="fill:#cccccc;fill-opacity:1;fill-rule:nonzero;stroke:none"
             d="m 0,0 h -16.48 c -1.04,0 -1.882,-0.843 -1.882,-1.882 v -11.996 h -11.996 c -1.039,0 -1.882,-0.843 -1.882,-1.882 v -16.48 c 0,-1.04 0.843,-1.882 1.882,-1.882 h 11.996 v -11.996 c 0,-1.039 0.842,-1.882 1.882,-1.882 H 0 c 1.039,0 1.882,0.843 1.882,1.882 v 11.996 h 11.996 c 1.039,0 1.882,0.842 1.882,1.882 v 16.48 c 0,1.039 -0.843,1.882 -1.882,1.882 H 1.882 V -1.882 C 1.882,-0.843 1.039,0 0,0" /></g><g
           transform="translate(78,130.196)"
           id="g46"><path
             id="path48"
             style="fill:#191919;fill-opacity:1;fill-rule:nonzero;stroke:none"
             d="M 0,0 H -13.804 V 13.804 H -30.196 V 0 H -44 v -16.392 h 13.804 v -13.804 h 16.392 v 13.804 H 0 Z" /></g><g
           transform="translate(192,98.4392)"
           id="g50"><path
             id="path52"
             style="fill:#cccccc;fill-opacity:1;fill-rule:nonzero;stroke:none"
             d="M 0,0 C 0,-1.347 -1.092,-2.439 -2.439,-2.439 H -21.561 C -22.908,-2.439 -24,-1.347 -24,0 v 19.122 c 0,1.347 1.092,2.439 2.439,2.439 H -2.439 C -1.092,21.561 0,20.469 0,19.122 Z" /></g><g
           transform="translate(191,108)"
           id="g54"><path
             id="path56"
             style="fill:#7b0000;fill-opacity:1;fill-rule:nonzero;stroke:none"
             d="m 0,0 c 0,6.065 -4.935,11 -11,11 -6.065,0 -11,-4.935 -11,-11 0,-6.065 4.935,-11 11,-11 6.065,0 11,4.935 11,11" /></g><g
           transform="translate(190,108)"
           id="g58"><path
             id="path60"
             style="fill:#b80000;fill-opacity:1;fill-rule:nonzero;stroke:none"
             d="m 0,0 c 0,-5.523 -4.477,-10 -10,-10 -5.523,0 -10,4.477 -10,10 0,5.523 4.477,10 10,10 C -4.477,10 0,5.523 0,0" /></g><g
           transform="translate(224,98.4392)"
           id="g62"><path
             id="path64"
             style="fill:#cccccc;fill-opacity:1;fill-rule:nonzero;stroke:none"
             d="M 0,0 C 0,-1.347 -1.092,-2.439 -2.439,-2.439 H -21.561 C -22.908,-2.439 -24,-1.347 -24,0 v 19.122 c 0,1.347 1.092,2.439 2.439,2.439 H -2.439 C -1.092,21.561 0,20.469 0,19.122 Z" /></g><g
           transform="translate(223,108)"
           id="g66"><path
             id="path68"
             style="fill:#7b0000;fill-opacity:1;fill-rule:nonzero;stroke:none"
             d="m 0,0 c 0,6.065 -4.935,11 -11,11 -6.065,0 -11,-4.935 -11,-11 0,-6.065 4.935,-11 11,-11 6.065,0 11,4.935 11,11" /></g><g
           transform="translate(222,108)"
           id="g70"><path
             id="path72"
             style="fill:#b80000;fill-opacity:1;fill-rule:nonzero;stroke:none"
             d="m 0,0 c 0,-5.523 -4.477,-10 -10,-10 -5.523,0 -10,4.477 -10,10 0,5.523 4.477,10 10,10 C -4.477,10 0,5.523 0,0" /></g><g
           transform="translate(152,96)"
           id="g74"><path
             id="path76"
             style="fill:#cccccc;fill-opacity:1;fill-rule:nonzero;stroke:none"
             d="m 0,0 h -56 c -2.209,0 -4,1.791 -4,4 v 16 c 0,2.209 1.791,4 4,4 H 0 c 2.209,0 4,-1.791 4,-4 V 4 C 4,1.791 2.209,0 0,0" /></g><g
           transform="translate(120,108)"
           id="g78"><path
             id="path80"
             style="fill:#191919;fill-opacity:1;fill-rule:nonzero;stroke:none"
             d="M 0,0 C 0,-2.209 -1.78,-4 -3.976,-4 H -16.024 C -18.22,-4 -20,-2.209 -20,0 c 0,2.209 1.78,4 3.976,4 H -3.976 C -1.78,4 0,2.209 0,0" /></g><g
           transform="translate(148,108)"
           id="g82"><path
             id="path84"
             style="fill:#191919;fill-opacity:1;fill-rule:nonzero;stroke:none"
             d="M 0,0 C 0,-2.209 -1.78,-4 -3.976,-4 H -16.024 C -18.22,-4 -20,-2.209 -20,0 c 0,2.209 1.78,4 3.976,4 H -3.976 C -1.78,4 0,2.209 0,0" /></g><g
           transform="translate(60,122)"
           id="g86"><path
             id="path88"
             style="fill:#262626;fill-opacity:1;fill-rule:nonzero;stroke:none"
             d="m 0,0 c 0,-2.209 -1.791,-4 -4,-4 -2.209,0 -4,1.791 -4,4 0,2.209 1.791,4 4,4 2.209,0 4,-1.791 4,-4" /></g><g
           transform="translate(54.1263,106.7519)"
           id="g90"><path
             id="path92"
             style="fill:#262626;fill-opacity:1;fill-rule:nonzero;stroke:none"
             d="M 0,0 V 3.248 H 3.949 V 0 h 1.924 l -4,-4.752 -4,4.752 z" /></g><g
           transform="translate(57.8731,137.2481)"
           id="g94"><path
             id="path96"
             style="fill:#262626;fill-opacity:1;fill-rule:nonzero;stroke:none"
             d="M 0,0 V -3.248 H -3.949 V 0 h -1.924 l 4,4.752 4,-4.752 z" /></g><g
           transform="translate(40.7519,123.8737)"
           id="g98"><path
             id="path100"
             style="fill:#262626;fill-opacity:1;fill-rule:nonzero;stroke:none"
             d="M 0,0 H 3.248 V -3.949 H 0 v -1.924 l -4.752,4 4.752,4 z" /></g><g
           transform="translate(71.248,120.1269)"
           id="g102"><path
             id="path104"
             style="fill:#262626;fill-opacity:1;fill-rule:nonzero;stroke:none"
             d="M 0,0 H -3.248 V 3.949 H 0 v 1.924 l 4.752,-4 -4.752,-4 z" /></g><g
           transform="translate(156,126.8457)"
           id="g106"><path
             id="path108"
             style="fill:#808080;fill-opacity:1;fill-rule:nonzero;stroke:none"
             d="M 0,0 C 0,-1.572 -1.174,-2.846 -2.623,-2.846 H -61.377 C -62.826,-2.846 -64,-1.572 -64,0 v 6.309 c 0,1.571 1.174,2.845 2.623,2.845 H -2.623 C -1.174,9.154 0,7.88 0,6.309 Z" /></g><g
           transform="translate(156,142.8457)"
           id="g110"><path
             id="path112"
             style="fill:#808080;fill-opacity:1;fill-rule:nonzero;stroke:none"
             d="M 0,0 C 0,-1.572 -1.174,-2.846 -2.623,-2.846 H -61.377 C -62.826,-2.846 -64,-1.572 -64,0 v 6.309 c 0,1.571 1.174,2.845 2.623,2.845 H -2.623 C -1.174,9.154 0,7.88 0,6.309 Z" /></g><g
           transform="translate(92,164)"
           id="g114"><path
             id="path116"
             style="fill:#808080;fill-opacity:1;fill-rule:nonzero;stroke:none"
             d="M 0,0 V -5.154 C 0,-6.726 1.174,-8 2.623,-8 H 61.377 C 62.826,-8 64,-6.726 64,-5.154 V 0 Z" /></g><g
           transform="translate(153.3768,92)"
           id="g118"><path
             id="path120"
             style="fill:#808080;fill-opacity:1;fill-rule:nonzero;stroke:none"
             d="m 0,0 h -58.754 c -1.448,0 -2.623,-1.274 -2.623,-2.846 V -8 h 64 v 5.154 C 2.623,-1.274 1.449,0 0,0" /></g><path
           id="path122"
           style="fill:#b3b3b3;fill-opacity:1;fill-rule:nonzero;stroke:none"
           d="M 92,172 H 80 v 4 h 12 z" /></g></g></g></svg>
